X: 24643
T: MacDugle's
R: reel
M: 4/4
K: Gmajor
G2G2 EDDB,|D2DE DB,A,B,|G,2B,D EDB,D|CEGc dfaf|
gfeg edBe|dBAB GEDF|G4 EDDB,|DEG2 G4:|
|:gfeg edBe|dBAB GEDF|~G2BA G2Bd|eAAB A2 (3def|
gfeg edBe|dBAB GEDF|G4 EDDB,|DEG2 G4:|

